X:1
T:Nigra sum
T:Virgilio Mazzocchi (1597-1646)
T:Nigra sum
T:(C) Wim Looyestijn - 2018. May be freely copied for non-commercial use.
T:(C) Wim Looyestijn - 2018. May be freely copied for non-commercial use.
T:(C) Wim Looyestijn - 2018. May be freely copied for non-commercial use.
T:(C) Wim Looyestijn - 2018. May be freely copied for non-commercial use.
T:(C) Wim Looyestijn - 2018. May be freely copied for non-commercial use.
T:(C) Wim Looyestijn - 2018. May be freely copied for non-commercial use.
T:(C) Wim Looyestijn - 2018. May be freely copied for non-commercial use.
T:(C) Wim Looyestijn - 2018. May be freely copied for non-commercial use.
C:Virgilio Mazzocchi
C:(1597-1646)
Z:(C) Wim Looyestijn - 2018. May be freely copied for non-commercial use.
%%score [ 1 2 3 4 ]
L:1/8
Q:1/4=120
M:4/4
K:C
V:1 alto1 nm="Canto primo" snm="C1"
V:2 alto1 nm="Canto secondo" snm="C2"
V:3 bass nm="Basso primo" snm="B1"
V:4 bass nm="Basso secondo" snm="B2"
V:1
 x8 | z8 | x16 |[M:4/4] z8 | z8 | z4 B2 c2 | de dc Bc BA | GF EF GA GA | B4 c4 | z4 B2 c2 | d8 | %11
w: |||||sed for-|mo- * * * * * * *||* sa,|sed for-|mo-|
 c8 | z8 | z4 G4- | G4 ^F4 | G8 | z8 | z8 | z8 | z8 | z8 | z8 | d6 d2 | c8 | z8 | z4 c2 d2 | %26
w: sa,||ni-|* gra|sum,|||||||ni- gra|sum,||sed for-|
 ef ed cd cB | AB cd e4 | d4 z4 | z4 E2 F2 | GA GA Bc Bc | d3 c B4 | A8 | A3 A A2 F2 | E6 E2 | E8 | %36
w: mo- * * * * * * *||sa,|sed for-|mo- * * * * * * *||sa,|fi- li- æ Je-|ru- sa-|lem,|
 e3 e e2 d2 | c3 B B4 | z2 d2 c3 B | B4 A4 | z8 | z8 | z8 | e3 e e2 d2 | c3 B B4 | z2 c2 B3 A | %46
w: i- de- o di-|le- xit me,|di- le- xit|me, Rex,||||i- de- o di-|le- xit me,|di- le- xit|
 A4 G4 | z4 z ABc | dd d4 cc | B2 B2 A4 | z CEF GG G2- | G2 CC D3 D | D2 d3 d c2- | cc A2 G4 | %54
w: me, Rex,|et in- tro-|du- xit me in cu-|bi- cu- lum,|et in- tro- du- xit me|* in cu- bi- cu-|lum, in cu- bi-|* cu- lum su-|
 ^F8 | d3 d d3 e | c3 d B2 z d | c3 B B4 | A4 z4 | z8 | z8 | z8 | c3 c c2 B2 | B3 A B2 z B | %64
w: um,|i- de- o di-|le- xit me, di-|le- xit me,|Rex,||||i- de- o di-|le- xit me, di-|
 G3 ^G F4 | G4 z4 | z4 z D^F^G | AA A4 GG | F3 F E4 | z4 z CEF | GG G4 CC | D3 D C4 | %72
w: le- xit me,|Rex,|et in- tro-|du- xit me in cu-|bi- cu- lum,|et in- tro-|du- xit me in cu-|bi- cu- lum,|
 z GBc dd d2- | d2 cc B3 B | A4 z ^FGA | BB B4 AG | ^F3 F G4 | A8 | G16 |] %79
w: et in- tro- du- xit me|* in cu- bi- cu-|lum, et in- tro-|du- xit me in cu-|bi- cu- lum|su-|um.|
V:2
 x8 | z8 | x16 |[M:4/4] z8 | z8 | z8 | z8 | z4 E2 F2 | GA GF EF ED | CD EF GA GA | B2 c4 B2 | c8 | %12
w: |||||||sed for-|mo- * * * * * * *|||sa,|
 z8 | z8 | A6 A2 | G8 | z8 | z8 | z8 | z8 | z8 | z4 c4- | c4 B4 | c8 | z8 | z4 A2 B2 | %26
w: ||ni- gra|sum,||||||ni-|* gra|sum,||sed for-|
 cd cB AB AG | FG AB c4 | G8 | z8 | z4 G2 A2 | Bc Bc d4 | d8 | e3 e e2 d2 | B6 B2 | A8 | %36
w: mo- * * * * * * *||sa,||sed for-|mo- * * * *|sa,|fi- li- æ Je-|ru- sa-|lem,|
 c3 c c2 B2 | A3 ^G G4 | z2 B2 A3 ^G | ^G4 A4 | z8 | z8 | z8 | c3 c c2 B2 | B3 A B4 | z2 A2 G3 ^F | %46
w: i- de- o di-|le- xit me,|di- le- xit|me, Rex,||||i- de- o di-|le- xit me,|di- le- xit|
 ^F4 G4 | z8 | z D^FG AA A2- | A2 GG F3 F | E4 z4 | z CEF GG G2- | G2 FF E3 E | E2 D4 ^C2 | D8 | %55
w: me, Rex,||et in- tro- du- xit me|* in cu- bi- cu-|lum,|et in- tro- du- xit me|* in cu- bi- cu-|lum su- *|um,|
 B3 B B3 c | A3 B ^G2 z B | A3 ^G G4 | A4 z4 | z8 | z8 | z8 | e3 e e2 d2 | c3 B B2 z c | B3 A A4 | %65
w: i- de- o di-|le- xit me, di-|le- xit me,|Rex,||||i- de- o di-|le- xit me, di-|le- xit me,|
 G4 z4 | z ABc dd d2- | d2 cc B3 B | A4 z CEF | GG G4 CC | D3 D C4 | z GAB cc c2- | c2 BB A3 A | %73
w: Rex,|et in- tro- du- xit me|* in cu- bi- cu-|lum, et in- tro-|du- xit me in cu-|bi- cu- lum,|et in- tro- du- xit me|* in cu- bi- cu-|
 G8 | z4 z ABc | dd d4 cB | A3 A G4 | G4 ^F4 | G16 |] %79
w: lum,|et in- tro-|du- xit me in cu-|bi- cu- lum|su- *|um.|
V:3
 x8 | z8 | x16 |[M:4/4] G,8- | G,4 ^F,4 | G,8 | z8 | z8 | z8 | z8 | z8 | z8 | D,6 D,2 | C,8 | z8 | %15
w: |||Ni-|* gra|sum,|||||||ni- gra|sum||
 z4 E,2 F,2 | G,A, G,F, E,F, E,D, | C,B,, A,,B,, C,D, C,D, | E,4 C,4 | z4 B,,2 C,2 | D,8 | C,8 | %22
w: sed for-|mo- * * * * * * *||* sa,|sed for-|mo-|sa,|
 z8 | z4 C4- | C4 B,4 | C8 | z8 | z4 E,2 F,2 | G,A, G,F, E,F, E,D, | C,D, C,B,, A,,4 | G,,8 | %31
w: |ni-|* gra|sum,||sed for-|mo- * * * * * * *||sa,|
 G,,2 A,,2 B,,C, B,,C, | D,4 D,4 | ^C,2 C,2 C,2 D,2 | E,6 E,2 | A,,8 | z8 | z8 | z8 | %39
w: sed for- mo- * * *|* sa,|fi- li- æ Je-|ru- sa-|lem,||||
 z4 z A,,C,D, | E,E, E,4 D,D, | C,3 C, B,,4 | A,,3 G,, F,,4 | E,,8 | z8 | z8 | z4 z G,,B,,C, | %47
w: et in- tro-|du- xit me in cu-|bi- cu- lum|su- * *|um,|||et in- tro-|
 D,D, D,4 C,C, | B,,3 B,, A,,4 | z4 z F,,A,,B,, | C,C, C,4 B,,B,, | A,,3 A,, G,,4 | %52
w: du- xit me in cu-|bi- cu- lum,|et in- tro-|du- xit me in cu-|bi- cu- lum,|
 D,2 D,2 E,3 E, | F,4 G,4 | A,8 | z8 | z8 | z8 | z4 z E,G,A, | B,B, B,4 A,A, | G,3 G, F,4 | %61
w: in cu- bi- cu-|lum su-|um,||||et in- tro-|du- xit me in cu-|bi- cu- lum|
 E,6 D,2 | E,8 | z8 | z8 | z4 z D,F,G, | A,A, A,4 D,D, | E,3 E, E,4 | z8 | z G,A,B, CC C2- | %70
w: su- *|um,|||et in- tro-|du- xit me in cu-|bi- cu- lum,||et in- tro- du- xit me|
 C2 B,B, A,3 A, | G,4 z C,E,F, | G,G, G,4 F,F, | E,3 E, D,4 | z D,^F,G, A,A, A,2- | A,2 G,4 D,2 | %76
w: * in cu- bi- cu-|lum, et in- tro-|du- xit me in cu-|bi- cu- lum,|et in- tro- du- xit me|* in cu-|
 D,3 C, B,,4 | D,8 | G,16 |] %79
w: bi- cu- lum|su-|um.|
V:4
 x8 | z8 | x16 |[M:4/4] z8 | A,6 A,2 | G,8 | z8 | z8 | z8 | z8 | z8 | z4 C,4- | C,4 B,,4 | C,8 | %14
w: ||||Ni- gra|sum,||||||ni-|* gra|sum|
 z8 | z8 | z8 | z4 E,2 F,2 | G,A, G,F, E,F, E,D, | C,D, E,F, G,A, G,A, | B,2 C4 B,2 | C8 | z8 | %23
w: |||sed for-|mo- * * * * * * *|||sa,||
 z8 | D6 D2 | C8 | z8 | z4 G,2 A,2 | B,C B,A, G,A, G,F, | E,F, E,D, C,4 | D,8 | z4 D,2 E,2 | %32
w: |ni- gra|sum,||sed for-|mo- * * * * * * *||sa,|sed for-|
 ^F,4 F,4 | A,3 A, A,2 A,2 | A,4 ^G,4 | A,8 | z8 | z8 | z8 | z8 | z E,G,A, B,B, B,2- | %41
w: mo- sa,|fi- li- æ Je-|ru- sa-|lem,|||||et in- tro- du- xit me|
 B,2 A,A, G,3 G, | F,2 E,4 D,2 | E,8 | z8 | z8 | z8 | z D,F,G, A,A, A,2- | A,2 D,D, E,3 E, | %49
w: * in cu- bi- cu-|lum su- *|um,||||et in- tro- du- xit me|* in cu- bi- cu-|
 E,4 z4 | z4 z G,A,B, | CC C4 B,B, | A,3 A, G,4 | F,4 E,4 | D,8 | z8 | z8 | z8 | %58
w: lum,|et in- tro-|du- xit me in cu-|bi- cu- lum|su- *|um,||||
 z A,,C,D, E,E, E,2- | E,2 D,D, C,3 C, | B,,4 A,,4- | A,,2 G,,2 F,,4 | E,,8 | z8 | z8 | %65
w: et in- tro- du- xit me|* in cu- bi- cu-|lum su-||um,|||
 z G,,B,,C, D,D, D,2- | D,2 C,C, B,,3 B,, | A,,4 z4 | z F,,A,,B,, C,C, C,2- | C,2 B,,B,, A,,3 A,, | %70
w: et in- tro- du- xit me|* in cu- bi- cu-|lum,|et in- tro- du- xit me|* in cu- bi- cu-|
 G,,G,A,B, CC C2- | C2 B,B, A,3 A, | G,4 D,4 | G,,4 z G,,B,,C, | D,D, D,4 C,C, | B,,3 A,, G,,4 | %76
w: lum, et in- tro- du- xit me|* in cu- bi- cu-|lum su-|um, et in- tro-|du- xit me in cu-|bi- cu- lum|
 D,8- | D,8 | G,,16 |] %79
w: su-||um.|

